X:15
T:Fugue Subject in C minor
C:Bach, J.S.
M:4/4
L:1/8
Q:1/4=84
K:Cmin
|:G2|c2 Bc dc Bd|ec Bd ec gf|ed cB AG FE|D4 z2 G2|
c2 de fe gf|ag fe dc Bc|dG eA fB gG|c4 z4:|

